X: 914
T: South Wind, The
B: jims roots
M:3/4
L:1/8
R: waltz
Q: 1/4=100
K:Gmaj
V:1 
%Z: BenH
dc|"G"B3A G2|B3c d2|"D"A4 A2|A4 dc|"G"B3A G2|"C"E3D E2|[1"G"G4 G2|G4:|
[2"G"G4 G2|G4 d2||"G"g4 g2|"C"g3f e2|"G"d4 d2|d4 c2|"G"B3A G2|B3c d2|
"D"A4 A2|A4 d2|"G"g3a f2|"C"g3f e2|"G"d4 d2|d4 c2|"Em"B3A G2|"D"Ac-c2 F2|"G"G4 G2|G4||
% abcbook-tune_id 6298c28736ff3db75390560a


% abcbook-boost 0
% abcbook-tablature 
% abcbook-transpose 
% abcbook-lastupdated 1654178440707
% abcbook-soundfonts 
% abcbook-repeats 1


